dist/icons/svgs/sunset-outline.svg

<svg xmlns="http://www.w3.org/2000/svg" width="24" height="24" fill="currentcolor" class="icon-sunset-outline" viewBox="0 0 24 24">
  <path d="M13.1641 10.4766C12.7734 10.8672 12.1875 10.8672 11.8359 10.4766L8.71094 7.35156C8.32031 7 8.32031 6.41406 8.71094 6.0625C9.0625 5.67188 9.64844 5.67188 10.0391 6.0625L11.5625 7.58594V2.9375C11.5625 2.42969 11.9531 2 12.5 2C13.0078 2 13.4375 2.42969 13.4375 2.9375V7.58594L14.9609 6.0625C15.3125 5.67188 15.8984 5.67188 16.25 6.0625C16.6406 6.41406 16.6406 7 16.25 7.35156L13.125 10.4766H13.1641ZM16.6016 10.8281C16.875 10.9453 17.1094 11.2188 17.1484 11.5312L17.8516 15.3984L21.7188 16.1016C22.0312 16.1406 22.3047 16.375 22.4219 16.6484C22.5391 16.9609 22.5 17.2734 22.3047 17.5469L20.5078 20.125H22.8125C23.3203 20.125 23.75 20.5547 23.75 21.0625C23.75 21.6094 23.3203 22 22.8125 22H2.1875C1.64062 22 1.25 21.6094 1.25 21.0625C1.25 20.5547 1.64062 20.125 2.1875 20.125H4.45312L2.65625 17.5469C2.46094 17.2734 2.42188 16.9609 2.53906 16.6484C2.65625 16.375 2.92969 16.1406 3.24219 16.1016L7.10938 15.3984L7.8125 11.5312C7.85156 11.2188 8.08594 10.9453 8.35938 10.8281C8.67188 10.7109 8.98438 10.75 9.25781 10.9453L12.5 13.1719L15.7031 10.9453C15.9766 10.75 16.2891 10.7109 16.6016 10.8281ZM6.71875 20.125H8.16406C8.4375 18.0156 10.2734 16.375 12.5 16.375C14.6875 16.375 16.5234 18.0156 16.7969 20.125H18.2422L19.9609 17.6641L16.875 17.1172C16.5234 17.0391 16.2109 16.7266 16.1328 16.375L15.5859 13.2891L13.0078 15.0469C12.6953 15.2812 12.2656 15.2812 11.9531 15.0469L9.375 13.2891L8.82812 16.375C8.75 16.7266 8.4375 17.0391 8.08594 17.1172L5 17.6641L6.71875 20.125ZM14.9219 20.125C14.6094 19.0703 13.6328 18.25 12.5 18.25C11.3281 18.25 10.3516 19.0703 10.0781 20.125H14.9219Z"/>
</svg>

<svg xmlns="http://www.w3.org/2000/svg" width="24" height="24" fill="currentColor" class="icon-sunset-outline" viewBox="0 0 24 24">
  <path d="M13.164 10.477c-.39.39-.976.39-1.328 0L8.71 7.352a.855.855 0 0 1 0-1.29c.351-.39.937-.39 1.328 0l1.524 1.524V2.938c0-.508.39-.938.937-.938a.95.95 0 0 1 .938.938v4.648l1.523-1.524a.856.856 0 0 1 1.289 0c.39.352.39.938 0 1.29l-3.125 3.125zm3.438.351c.273.117.507.39.546.703l.704 3.867 3.867.704a.93.93 0 0 1 .703.546.93.93 0 0 1-.117.899l-1.797 2.578h2.305a.95.95 0 0 1 .937.938c0 .546-.43.937-.937.937H2.188c-.547 0-.938-.39-.938-.937 0-.508.39-.938.938-.938h2.265l-1.797-2.578a.93.93 0 0 1-.117-.899.92.92 0 0 1 .703-.546l3.867-.704.704-3.867a.93.93 0 0 1 .546-.703.93.93 0 0 1 .899.117l3.242 2.227 3.203-2.227a.93.93 0 0 1 .899-.117m-9.883 9.297h1.445c.274-2.11 2.11-3.75 4.336-3.75 2.188 0 4.023 1.64 4.297 3.75h1.445l1.719-2.46-3.086-.548a1.02 1.02 0 0 1-.742-.742l-.547-3.086-2.578 1.758a.88.88 0 0 1-1.055 0l-2.578-1.758-.547 3.086a1.02 1.02 0 0 1-.742.742L5 17.664zm8.203 0c-.313-1.055-1.29-1.875-2.422-1.875-1.172 0-2.148.82-2.422 1.875z"/>
</svg>
